X:18365
T:WALKIN' THE PUP
M:6/8
L:1/8
C:B.BLACK
R:JIG
K:G
D|GBd gfg|edB d2 B|cBc EFG|AGE D2 D|
GBd gfg|efg a^ga|gdB cAF|G3 G2:|
A|dfa afd|cec B2 c| d2 B GAB|ABA FED|
GAB ABc|Bcd c2 e|dBG FGA|G3 G2:|


